X:1005
T:Scale Navigation D
O:Kevin Fraser
Z:Kevin Fraser
Q:1/4=120
K:HP
M:4/4
L:1/4
R:March
V:gstem=up stem=down
%%MIDI gracedivider 4
%%MIDI gchord
%%MIDI beatstring
[| d  G  d  A  |  d  B  d  c  |  d  e  d  f  |  d  g   d  a  |  a  d  g   d  |  f   d  e  d |    c  d   B  d | A d  G  d  |]
w: d  G  d  A  |  d  B  d  c  |  d  e  d  f  |  d  g   d  a  |  a  d  g   d  |  f   d  e  d |    c  d   B  d | A d  G  d  
w: a em a en  |  a o  a o  |  a e  a ve |  a di  a I  |  I  a di  a |  ve  a e  a|   o  a   o  a | en a em a :| 

